!!!!SEGMENT: pl-wumfc--r300--002_paderewski-ignacy-jan--canons-canon-2.krn
!!!cenid: 18xx:3214
!!!COM: Paderewski, Ignacy Jan
!!!COM-rismid: pe30029943
!!!CDT: 1860/11/18-1941/06/29
!!!CNT: Polish
!!!GTL: [Canons]
!!!OTL: [Canon 2]
!!!PDT:
!!!AGN:
!!!SMS-siglum: PL-Wumfc
!!!SMS-shelfmark: R300
!!!SMS-shelfwork: 002 G
!!!SMS-variant:
!!!SMS-altvar:
!!!NIFC-rismid: 1001159509
!!!URL-scan: http://repozytorium.nifc.pl/skany/pl-wumfc--r300
!!!ONB-nifc: UWAGA: skan 0002, lewa strona
**kern	**kern
*part2	*part1
*staff2	*staff1
*Iforte	*Iforte
*I"[fortepian]	*I"[fortepian]
*I'pf	*I'pf
*clefF4	*clefG2
*k[b-]	*k[b-]
*g:	*g:
*M4/4	*M4/4
*>[A,A,B]	*
=1	=1
*>A	*
*^	*^
8F/L	2r	1r	2r
8G/	.	.	.
8A/	.	.	.
8A/J	.	.	.
4B-/	8D\L	.	2r
.	8E\	.	.
4A/	8F\	.	.
.	8F\J	.	.
=2	=2	=2	=2
4B-/	4G\	1r	8d\L
.	.	.	8e\
4A/	4F\	.	8f\
.	.	.	8f\J
8G/L	8E\L	.	8g\L
16A/L	8D\J	.	8f\
16Bn/J	.	.	.
8c/	4C\	.	8e\
8B-X/J	.	.	8d\J
=3	=3	=3	=3
4A/	4F\	4f/	8c\L
.	.	.	[8f\J
[<4G/	8C\L	4g/	8f\L]
.	8BB-\J	.	16e\L
.	.	.	16d\JJ
8G/L]	8AA\L	4a/	8c#X\L
8F/	8D\	.	8d\
8E/	8C#X\	4a/	8e\
8D/J	8D\J	.	8f\J
=4	=4	=4	=4
8B-/L	4GG\	2b-/	[>4d\
8A/J	.	.	.
4G/	4C\	.	8d\L]
.	.	.	8e\J
2A;/	2FF;\	2a;/	8f\L
.	.	.	16e\L
.	.	.	16d\JJ
.	.	.	4c;>\
=5	=5	=5	=5
8A/L	2r	1r	2r
8G/	.	.	.
8A/	.	.	.
8B-/J	.	.	.
8c/	8E\L	.	2r
4B-/	8D\	.	.
.	8E\	.	.
8A/	8F\J	.	.
!!LO:LB:g=original
=6	=6	=6	=6
8G/L	8E\	1r	8g\L
8A/	4D\	.	8f\
8B-/	.	.	8g\
8c/J	8C\	.	8a\J
8d/L	8BB-\L	.	8b-\L
8e/	8C\	.	16a\L
.	.	.	16g\JJ
8A/	8D\	.	8f\L
8c#X/J	8AA\J	.	8e\J
=7	=7	=7	=7
8d/L	4D\	4a/	4f\
8cn/J	.	.	.
4B-/	8E\L	4g/	4e\
.	8D\J	.	.
4A/	8C#X\L	4a/	8e\L
.	8D\J	.	8f\
4G/	4GG\	4b-/	8g\
.	.	.	[8f\J
=8	=8	=8	=8
2G/	4C\	4cc/	8f\L]
.	.	.	8e\
.	4CC\	4b-/	8d\
.	.	.	8e\J
2A;/	2FF;\	2a;/	2f;\
=9	=9	=9	=9
4re	8r	1rcc	2rb
.	8A\L	.	.
4r	8G\	.	.
.	8F\J	.	.
8r	8E\L	.	2rb
8c/L	8C\	.	.
8B-/	16D\L	.	.
.	16E\J	.	.
8A/J	8F\J	.	.
=10	=10	=10	=10
4G/	8E\L	1r	8r
.	8E-X\	.	8g\L
4A/	8D\	.	8f\
.	8C\J	.	8e-X\J
4B-/	8BB-\L	.	8d\L
.	8GG\	.	8en\
4F/	8AA\	.	8f\
.	8BB-\J	.	8d\J
!!LO:LB:g=original
=11	=11	=11	=11
2F/	8AA\L	4r	8c\L
.	8GG\J	.	8B-\
.	4FF\	4a/	8A\
.	.	.	8B-\J
4G/	4EE\	4g/	8c\L
.	.	.	16d\L
.	.	.	16e\JJ
4A/	4DD\	4f/	8f\L
.	.	.	8e\J
=12	=12	=12	=12
4A/	4FF\	2a/	8d\L
.	.	.	8e-X\
4D/	4FF#X\	.	8d\
.	.	.	8c\J
2D;/	2GG\	2g;/	2B-\
=13:|!	=13:|!	=13:|!	=13:|!
*>B	*	*	*
8F/L	2r	1r	2r
8G/	.	.	.
8A/	.	.	.
8B-/J	.	.	.
8d/L	8F\L	.	2r
16e/L	8G\	.	.
16d/J	.	.	.
8c/	8A\	.	.
8B-/J	8B-\J	.	.
*	*	*v	*v
=14	=14	=14
4B-/	8G\L	8d\L
.	8C#X\	8e\
8A/L	8D\	8f\
8G/J	8E\J	8g\J
8F/	8F\L	8a\L
4G/	8BB-\	16g\L
.	.	16f\J
.	8E\	8e\
16A/LL	8AA\J	8c#X\J
16G/JJ	.	.
=15	=15	=15
*	*	*^
4F/	4D\	4f/	8d\L
.	.	.	[8f\
4B-/	4C\	4g/	8f\]
.	.	.	16e-X\L
.	.	.	16d\JJ
8A/L	8F\L	4a/	8c\L
8F/	16D\L	.	16f\L
.	16C\JJ	.	16e-\JJ
8F/	4BB-\	4b-/	4d\
8G/J	.	.	.
!!LO:LB:g=original
=16	=16	=16	=16
2.A/	4F\	4a/	8c\L
.	.	.	8d\
.	8C\L	2g/	8e-X\
.	8D\	.	8d\J
.	8E\	.	8c\L
.	8C\J	.	8e-\
8B-/L	4D\	4f#X/	8d\
8A/J	.	.	8c\J
=17	=17	=17	=17
8G/L	1GG;	1g;	8B-\L
8E-X/	.	.	8c\
8D/	.	.	8B-\
8F#X/J	.	.	8A\J
2G/	.	.	2B-;>\
*v	*v	*	*
*	*v	*v
==	==
*-	*-
!!!system-decoration: [(s1,s2)]
!!!RDF**kern: > = above
!!!RDF**kern: < = below
!!!AIN: 2 forte
!!!ENC: Anastazja Marusiak
!!!END: 2021-11-13
!!!ENC: Leszek Kubiak
!!!END: 2021-11-17
